X:1
T:Title
%%score ( 1 2 ) ( 3 4 )
L:1/8
Q:1/4=103
M:4/4
K:Eb
V:1 treble nm="Grand Piano, Soprano"
V:2 treble 
V:3 bass nm="Choir Pad, It Is Jesus"
V:4 bass 
V:1
 z2 G4 E2 | z2[K:bass] C2 z4 | z2[K:treble] B,4 z2 | E2 F2- [=A,EF-]2 [B,DF]2 | F2 F2- FF G2 | %5
 F2 F2- F[CE] E2 | E2 c2- cc E2 | [CEF]2 G-[CEG-] [DFG-][CEG-] [=B,DG]2 | z2 .G4 z2 | z2 .G4 z2 | %10
 z2 .F4 z2 | z2 B6 | z2 .e4 z2 | z2 .F4 z2 | z2 z B- B/ z/ z z2 | [A,DF]2 [G,B,E]6 | %16
 [GB][GB] [GB]4 .[EG]2 | [GB][Ge] [Ae]4 .[Ad]2 | [DF]2 [FA]2- [FA][GB] [Ac]2 | [Ad]2 [GB]6 | %20
 [GB][GB] [Ge]4 .[Ad]2 | [Be][Bd] [Ad]4 .[Ac]2 | [_Ge]2 [=GB]2- [GB]E [EG]2 | [B,F]2 [B,E]6- | %24
 [B,E]2 z2 z4 |] %25
V:2
 B,2 E2- E-[EF] B,2- | [B,D]2[K:bass] A,2- [A,E]2 [G,B,]2- | [G,B,]B,[K:treble] [DA]2 F2 G2 | %3
 z2 [B,D]2 z4 | z2 D6- | D6 _D2- | D2 [C-E]4 C2 | z2 .[CE]2 z4 | %8
 [=B,DG]2 [_B,CE][B,CE] [B,CE][B,CEG] [B,CEA]2 | [B,CEG]2 [A,C][A,C] [A,C][A,CF] [A,CF]2 | %10
 [A,=B,F]2 [A,_B,][A,B,] [A,B,][A,B,F] [A,DG]2 | [B,DF]2 [B,E][B,E] [B,E][B,E][B,DA][B,DA] | %12
 [B,DA][B,DA][EGB][EGB] [EGB][B,EGB] [A,EA]2 | [B,EG]2 [CE][CE] [CE][CEF] [DFAc]2- | %14
 [DFAc][CEFc][B,EGB][B,EG] [B,EG][B,EG] [=A,EF]2 | x8 | x8 | x8 | x8 | x8 | x8 | x8 | x8 | x8 | %24
 x8 |] %25
V:3
 z2 B,2- B,A, G,2 | z2 E,4 z2 | z8 | G,,2 B,,2 C,2 B,,2 | z2 A,4 G,2- | G,2 [C,G,]4 [_B,,G,]2- | %6
 [B,,G,]2 [A,,A,]6- | [A,,A,]2 G,,4 [G,,G,]2 | z2 C,6- | C,2 [F,,F,]6 | [E,,E,]2 D,4 B,,2 | %11
 [A,,A,]2 [G,,G,]4 [F,,F,]2- | [F,,F,]2 [E,,E,]2 _D,2 C,2 | B,,2 A,,4 =A,,2- | A,,2 B,,4 C,2 | %15
 B,,2 [E,,E,]6 | [E,B,][E,B,] [E,E]4 .[E,B,]2 | [E,B,][E,B,] [F,B,]4 .[B,F]2 | %18
 [B,,B,]2 [B,,B,]2- [B,,B,][B,,B,] [B,,B,]2 | [B,,B,]2 [E,B,]6 | [E,B,][E,B,] [E,B,]4 .[F,B,]2 | %21
 [G,E][G,E] [A,E]4 .[A,E]2 | [=A,C]2 [B,E]2- [B,E][B,,G,] [B,,B,]2 | [B,,A,]2 [E,G,]6- | %24
 [E,G,]2 z2 z4 |] %25
V:4
 z2 E,6 | [G,,E,]2 A,,2 C,2 E,2- | E,G, F,2 D,2 E,2 | x8 | z2 =B,,6- | B,,2 z2 z4 | x8 | x8 | x8 | %9
 x8 | x8 | x8 | x8 | x8 | x8 | x8 | x8 | x8 | x8 | x8 | x8 | x8 | x8 | x8 | x8 |] %25

